docs/icons/neon.svg

<svg width="58" height="58" viewBox="0 0 58 58" xmlns="http://www.w3.org/2000/svg">
    <path fill-rule="evenodd" clip-rule="evenodd"
        d="M0 10C0 4.47715 4.47705 0 9.99976 0H47.9989C53.5216 0 57.9986 4.47715 57.9986 10V42.3189C57.9986 48.0326 50.7684 50.5124 47.2618 46.0014L36.2991 31.8988V49C36.2991 53.9706 32.2698 58 27.2993 58H9.99976C4.47705 58 0 53.5228 0 48V10ZM9.99976 8C8.89522 8 7.99981 8.89543 7.99981 10V48C7.99981 49.1046 8.89522 50 9.99976 50H27.5993C28.1516 50 28.2993 49.5523 28.2993 49V26.0673C28.2993 20.3536 35.5295 17.8738 39.0361 22.3848L49.9988 36.4874V10C49.9988 8.89543 50.1034 8 48.9988 8H9.99976Z"
        fill="#00E0D9" />
    <path fill-rule="evenodd" clip-rule="evenodd"
        d="M0 10C0 4.47715 4.47705 0 9.99976 0H47.9989C53.5216 0 57.9986 4.47715 57.9986 10V42.3189C57.9986 48.0326 50.7684 50.5124 47.2618 46.0014L36.2991 31.8988V49C36.2991 53.9706 32.2698 58 27.2993 58H9.99976C4.47705 58 0 53.5228 0 48V10ZM9.99976 8C8.89522 8 7.99981 8.89543 7.99981 10V48C7.99981 49.1046 8.89522 50 9.99976 50H27.5993C28.1516 50 28.2993 49.5523 28.2993 49V26.0673C28.2993 20.3536 35.5295 17.8738 39.0361 22.3848L49.9988 36.4874V10C49.9988 8.89543 50.1034 8 48.9988 8H9.99976Z"
        fill="url(#paint0_linear_10558_11765)" />
    <path fill-rule="evenodd" clip-rule="evenodd"
        d="M0 10C0 4.47715 4.47705 0 9.99976 0H47.9989C53.5216 0 57.9986 4.47715 57.9986 10V42.3189C57.9986 48.0326 50.7684 50.5124 47.2618 46.0014L36.2991 31.8988V49C36.2991 53.9706 32.2698 58 27.2993 58H9.99976C4.47705 58 0 53.5228 0 48V10ZM9.99976 8C8.89522 8 7.99981 8.89543 7.99981 10V48C7.99981 49.1046 8.89522 50 9.99976 50H27.5993C28.1516 50 28.2993 49.5523 28.2993 49V26.0673C28.2993 20.3536 35.5295 17.8738 39.0361 22.3848L49.9988 36.4874V10C49.9988 8.89543 50.1034 8 48.9988 8H9.99976Z"
        fill="url(#paint1_linear_10558_11765)" fill-opacity="0.4" />
    <path
        d="M48.0003 0C53.523 0 58 4.47715 58 10V42.3189C58 48.0326 50.7699 50.5124 47.2633 46.0014L36.3006 31.8988V49C36.3006 53.9706 32.2712 58 27.3008 58C27.8531 58 28.3008 57.5523 28.3008 57V26.0673C28.3008 20.3536 35.5309 17.8738 39.0375 22.3848L50.0002 36.4874V2C50.0002 0.89543 49.1048 0 48.0003 0Z"
        fill="#63F655" />
    <defs>
        <linearGradient id="paint0_linear_10558_11765" x1="57.9986" y1="58" x2="6.99848" y2="0.00123034"
            gradientUnits="userSpaceOnUse">
            <stop stop-color="#62F755" />
            <stop offset="1" stop-color="#8FF986" stop-opacity="0" />
        </linearGradient>
        <linearGradient id="paint1_linear_10558_11765" x1="57.9986" y1="58" x2="23.5492" y2="44.6006"
            gradientUnits="userSpaceOnUse">
            <stop stop-opacity="0.9" />
            <stop offset="1" stop-color="#1A1A1A" stop-opacity="0" />
        </linearGradient>
    </defs>
</svg>

<svg xmlns="http://www.w3.org/2000/svg" viewBox="0 0 58 58">
    <path fill="#00E0D9"
        d="M0 10C0 4.477 4.477 0 10 0h37.999c5.523 0 10 4.477 10 10v32.319c0 5.714-7.23 8.193-10.737 3.682L36.299 31.9V49a9 9 0 0 1-9 9H10C4.478 58 0 53.523 0 48zm10-2a2 2 0 0 0-2 2v38a2 2 0 0 0 2 2h17.6c.552 0 .7-.448.7-1V26.067c0-5.713 7.23-8.193 10.736-3.682L50 36.487V10c0-1.105.104-2-1-2z" />
    <path fill="url(#a)"
        d="M0 10C0 4.477 4.477 0 10 0h37.999c5.523 0 10 4.477 10 10v32.319c0 5.714-7.23 8.193-10.737 3.682L36.299 31.9V49a9 9 0 0 1-9 9H10C4.478 58 0 53.523 0 48zm10-2a2 2 0 0 0-2 2v38a2 2 0 0 0 2 2h17.6c.552 0 .7-.448.7-1V26.067c0-5.713 7.23-8.193 10.736-3.682L50 36.487V10c0-1.105.104-2-1-2z" />
    <path fill="url(#b)" fill-opacity=".4"
        d="M0 10C0 4.477 4.477 0 10 0h37.999c5.523 0 10 4.477 10 10v32.319c0 5.714-7.23 8.193-10.737 3.682L36.299 31.9V49a9 9 0 0 1-9 9H10C4.478 58 0 53.523 0 48zm10-2a2 2 0 0 0-2 2v38a2 2 0 0 0 2 2h17.6c.552 0 .7-.448.7-1V26.067c0-5.713 7.23-8.193 10.736-3.682L50 36.487V10c0-1.105.104-2-1-2z" />
    <path fill="#63F655"
        d="M48 0c5.523 0 10 4.477 10 10v32.319c0 5.714-7.23 8.193-10.737 3.682L36.301 31.9V49a9 9 0 0 1-9 9 1 1 0 0 0 1-1V26.067c0-5.713 7.23-8.193 10.737-3.682L50 36.487V2a2 2 0 0 0-2-2" />
    <defs>
        <linearGradient id="a" x1="57.999" x2="6.998" y1="58" y2=".001" gradientUnits="userSpaceOnUse">
            <stop stop-color="#62F755" />
            <stop offset="1" stop-color="#8FF986" stop-opacity="0" />
        </linearGradient>
        <linearGradient id="b" x1="57.999" x2="23.549" y1="58" y2="44.601" gradientUnits="userSpaceOnUse">
            <stop stop-opacity=".9" />
            <stop offset="1" stop-color="#1A1A1A" stop-opacity="0" />
        </linearGradient>
    </defs>
</svg>
